!!!COM: Mendelssohn, Felix
!!!CDT: 1809/02/03-1847/11/04
!!!OPR: Vier vierstimmige Lieder
!!!OTL: Andenken
!!!OPS: Op. 100
!!!ONM: Nr. 1
!!!OMD: Andante con moto espressivo
**kern	**text	**text	**dynam	**kern	**text	**text	**dynam	**kern	**text	**text	**dynam	**kern	**text	**text	**dynam
*part4	*part4	*part4	*part4	*part3	*part3	*part3	*part3	*part2	*part2	*part2	*part2	*part1	*part1	*part1	*part1
*staff4	*staff4	*staff4	*	*staff3	*staff3	*staff3	*	*staff2	*staff2	*staff2	*	*staff1	*staff1	*staff1	*
*Ivox	*	*	*	*Ivox	*	*	*	*Ivox	*	*	*	*Ivox	*	*	*
*I"Bass	*	*	*	*I"Tenor	*	*	*	*I"Alt	*	*	*	*I"Sopran	*	*	*
*clefF4	*	*	*	*clefGv2	*	*	*	*clefG2	*	*	*	*clefG2	*	*	*
*k[f#c#]	*	*	*	*k[f#c#]	*	*	*	*k[f#c#]	*	*	*	*k[f#c#]	*	*	*
*D:	*	*	*	*D:	*	*	*	*D:	*	*	*	*D:	*	*	*
*M3/4	*	*	*	*M3/4	*	*	*	*M3/4	*	*	*	*M3/4	*	*	*
=	=	=	=	=	=	=	=	=	=	=	=	=	=	=	=
4A	1.Die	2.Wohl	p	4A	1.Die	2.Wohl	p	4a	1.Die	2.Wohl	p	4a	1.Die	2.Wohl	p
=1	=1	=1	=1	=1	=1	=1	=1	=1	=1	=1	=1	=1	=1	=1	=1
4.D	Bäu-	al-	.	4.A	Bäu-	al-	.	4.f#	Bäu-	al-	.	4.ff#	Bäu-	al-	.
8D	-me	-les,	.	8F#	-me	-les,	.	8a	-me	-les,	.	8dd	-me	-les,	.
8D	grü-	was	.	8G	grü-	was	.	8a	grü-	was	.	8cc#	grü-	was	.
8D	-nen	im	.	8B	-nen	im	.	8g	-nen	im	.	8b	-nen	im	.
=2	=2	=2	=2	=2	=2	=2	=2	=2	=2	=2	=2	=2	=2	=2	=2
8.D	ü-	Schlum-	.	8.d	ü-	Schlum-	.	8.f#	ü-	Schlum-	.	8.a	ü-	Schlum-	.
16D	-ber-	-mer	.	16c#	-ber-	-mer	.	16g	-ber-	-mer	.	16b	-ber-	-mer	.
4D	-all,	lag,	.	4d	-all,	lag,	.	4f#	-all,	lag,	.	4a	-all,	lag,	.
4C#	die	er-	.	4e	die	er-	.	4g	die	er-	.	4a	die	er-	.
=3	=3	=3	=3	=3	=3	=3	=3	=3	=3	=3	=3	=3	=3	=3	=3
4.D	Blu-	-wacht	.	4.d	Blu-	-wacht	.	4.f#	Blu-	-wacht	.	4.a	Blu-	-wacht	.
8F#	-men	zu	.	8d	-men	zu	.	8d	-men	zu	.	8a	-men	zu	.
8B	blü-	neu-	.	8d	blü-	neu-	.	8d	blü-	neu-	.	8g#X	blü-	neu-	.
8B	-hen	-em	.	8e	-hen	-em	.	8g#X	-hen	-em	.	8dd	-hen	-em	.
=4	=4	=4	=4	=4	=4	=4	=4	=4	=4	=4	=4	=4	=4	=4	=4
4B	wie-	Le-	.	4e	wie-	Le-	.	4g#X	wie-	Le-	.	4dd	wie-	Le-	.
4A	-der,	-ben,	.	4e	-der,	-ben,	.	4a	-der,	-ben,	.	4cc#	-der,	-ben,	.
4A	und	und	.	4c#	und	und	.	4a	und	und	.	4a	und	und	.
=5	=5	=5	=5	=5	=5	=5	=5	=5	=5	=5	=5	=5	=5	=5	=5
*e:	*	*	*	*e:	*	*	*	*e:	*	*	*	*e:	*	*	*
4.E	wie-	je-	.	4.e	wie-	je-	.	4.gnX	wie-	je-	.	4.ggnX	wie-	je-	.
8F#	-der	-de	<	8d#X	-der	-de	<	8a	-der	-de	<	8ff#	-der	-de	<
8G	singt	Blüth’	.	8e	singt	Blüth’	.	8b	singt	Blüth’	.	8ee	singt	Blüth’	.
*D:	*	*	*	*D:	*	*	*	*D:	*	*	*	*D:	*	*	*
8G#X	die	an	[[	8e	die	an	[[	8b	die	an	[[	8dd	die	an	[[
=6	=6	=6	=6	=6	=6	=6	=6	=6	=6	=6	=6	=6	=6	=6	=6
8A	Nach-	je-	>	8e	Nach-	je-	>	8e	Nach-	je-	>	8cc#	Nach-	je-	>
8G	-ti-	-dem	.	8c#	-ti-	-dem	.	8e	-ti-	-dem	.	8b	-ti-	-dem	.
4F#	-gall	Hag	.	4d	-gall	Hag	.	(8aL	-gall	Hag	.	4a	-gall	Hag	.
.	.	.	.	.	.	.	.	8f#J)	.	.	.	.	.	.	.
4G	nun	darf	sf	(8BL	nun	darf	sf	4e	nun	darf	sf	(8ddL	nun	darf	sf
.	.	.	.	8dJ)	.	.	.	.	.	.	.	8bJ)	.	.	.
=7	=7	=7	=7	=7	=7	=7	=7	=7	=7	=7	=7	=7	=7	=7	=7
4.A	ih-	sich	.	4.d	ih-	sich	.	4.f#	ih-	sich	.	4.a	ih-	sich	.
8AA	-re	zur	p	8d	-re	zur	p	8d	-re	zur	p	8f#	-re	zur	p
8AA	al-	Son-	.	8c#	al-	Son-	.	8e	al-	Son-	.	8g	al-	Son-	.
8AA	-ten	-ne	.	8c#	-ten	-ne	.	(16gL	-ten	-ne	.	(16bL	-ten	-ne	.
.	.	.	.	.	.	.	.	16f#J)	.	.	.	16aJ)	.	.	.
=8	=8	=8	=8	=8	=8	=8	=8	=8	=8	=8	=8	=8	=8	=8	=8
4AA	Lie-	he-	.	4c#	Lie-	he-	.	4e	Lie-	he-	.	4g	Lie-	he-	.
4D	-der.	-ben.	.	4d	-der.	-ben.	.	4d	-der.	-ben.	.	4f#	-der.	-ben.	.
4D	O	Was	.	4d	O	Was	.	4f#	O	Was	.	8r	.	.	.
.	.	.	.	.	.	.	.	.	.	.	.	8a	O	Was	.
=9	=9	=9	=9	=9	=9	=9	=9	=9	=9	=9	=9	=9	=9	=9	=9
8A	glück-	soll	<	8c#	glück-	soll	<	8e	glück-	soll	<	8a	glück-	soll	<
8A	-lich,	mir	.	8c#	-lich,	mir	.	8e	-lich,	mir	.	8a	-lich,	mir	.
8A	wer	Blüth’	.	8c#	wer	Blüth’	.	8e	wer	Blüth’	.	8g#X	wer	Blüth’	.
8A	noch	und	.	8c#	noch	und	.	8e	noch	und	.	8a	noch	und	.
8A	singt	Vo-	.	8f#	singt	Vo-	.	8a	singt	Vo-	.	8dd	singt	Vo-	.
8A	und	-gel-	.	8e	und	-gel-	.	8a	und	-gel-	.	8cc#	und	-gel-	.
=10	=10	=10	=10	=10	=10	=10	=10	=10	=10	=10	=10	=10	=10	=10	=10
2A	lacht,	-schall,	.	2d	lacht,	-schall,	.	2g#X	lacht,	-schall,	.	2b	lacht,	-schall,	.
4A	dass	du	.	4d	dass	du	.	4g#	dass	du	.	4b	dass	du	.
=11	=11	=11	=11	=11	=11	=11	=11	=11	=11	=11	=11	=11	=11	=11	=11
8A	auch	fehlst	<	8d	auch	fehlst	<	8g#X	auch	fehlst	<	8a#X	auch	fehlst	<
8A	der	mir,	.	8d	der	mir,	.	8g#	der	mir,	.	8b	der	mir,	.
8A	Früh-	fehlst	.	8c#	Früh-	fehlst	.	8gn	Früh-	fehlst	.	8ee	Früh-	fehlst	.
8A	-ling	mir	.	8c#	-ling	mir	.	8g	-ling	mir	.	8ee	-ling	mir	.
8A	sein	ü-	.	8c#	sein	ü-	.	8g	sein	ü-	.	8ee	sein	ü-	.
8A	ge-	-ber-	.	8d	ge-	-ber-	.	8g	ge-	-ber-	.	8dd	ge-	-ber-	.
=12	=12	=12	=12	=12	=12	=12	=12	=12	=12	=12	=12	=12	=12	=12	=12
[2.A	-dacht,	-all,	.	2e	-dacht,	-all,	.	2g	-dacht,	-all,	.	2cc#	-dacht,	-all,	.
.	.	.	.	4c#	o	was	f	4e	o	was	f	4a	o	was	f
=13	=13	=13	=13	=13	=13	=13	=13	=13	=13	=13	=13	=13	=13	=13	=13
8A]	.	.	.	(8c#'	glück-	soll	.	(8e'	glück-	soll	.	(8gg'	glück-	soll	.
8r	.	.	.	8d'	-lich,	mir	.	8f#'	-lich,	mir	.	8ff#'	-lich,	mir	.
4r	.	.	.	8e'	wer	Blüth’	.	8g'	wer	Blüth’	.	8ee'	wer	Blüth’	.
.	.	.	.	8f#')	noch	und	.	8a')	noch	und	.	8dd'	noch	und	.
4G	dass	du	>	8e	singt	Vo-	>	8e'	singt	Vo-	>	8cc#'	singt	Vo-	>
.	.	.	.	8c#	und	-gel-	.	8e'	und	-gel-	.	8b')	und	-gel-	.
=14	=14	=14	=14	=14	=14	=14	=14	=14	=14	=14	=14	=14	=14	=14	=14
2F#	auch	fehlst	.	4.c#	lacht,	-schall,	.	4.e	lacht,	-schall,	.	4.a#X	lacht,	-schall,	.
.	.	.	.	8A#X	dass	du	p	8e	dass	du	p	8f#	dass	du	p
4B	der	mir,	p	8B	auch	fehlst	.	8d	auch	fehlst	.	8g	auch	fehlst	.
.	.	.	.	8d	der	mir,	.	8e	der	mir,	.	8g#X	der	mir,	.
=15	=15	=15	=15	=15	=15	=15	=15	=15	=15	=15	=15	=15	=15	=15	=15
8A	Früh-	fehlst	.	8d	Früh-	fehlst	.	8f#	Früh-	fehlst	.	8anX	Früh-	fehlst	.
8A	-ling	mir	.	8d	-ling	mir	.	8d	-ling	mir	.	8f#	-ling	mir	.
4A	sein	ü-	.	4c#	sein	ü-	.	4.g	sein	ü-	.	4.b	sein	ü-	.
4AA	ge-	-ber-	.	4c#	ge-	-ber-	.	.	.	.	.	.	.	.	.
.	.	.	.	.	.	.	.	8e	ge-	-ber-	.	8g	ge-	-ber-	.
=16	=16	=16	=16	=16	=16	=16	=16	=16	=16	=16	=16	=16	=16	=16	=16
2D	-dacht,	-all,	.	2d	-dacht,	-all,	.	2d	-dacht,	-all,	.	2f#	-dacht,	-all,	.
4r	.	.	.	4A	o	was	.	4r	.	.	.	4r	.	.	.
=17	=17	=17	=17	=17	=17	=17	=17	=17	=17	=17	=17	=17	=17	=17	=17
4r	.	.	.	8g	glück-	soll	sf	4r	.	.	.	2.r	.	.	.
.	.	.	.	8f#	-lich,	mir	.	.	.	.	.	.	.	.	.
4r	.	.	.	8e	wer	Blüth’	.	4r	.	.	.	.	.	.	.
.	.	.	.	8d	noch	und	.	.	.	.	.	.	.	.	.
4G	dass	du	.	8c#	singt	Vo-	.	4e	dass	du	p	.	.	.	.
.	.	.	.	8B	und	-gel-	.	.	.	.	.	.	.	.	.
=18	=18	=18	=18	=18	=18	=18	=18	=18	=18	=18	=18	=18	=18	=18	=18
2F#	auch	fehlst	.	4.A#X	lacht,	-schall,	.	2e	auch	fehlst	.	4r	.	.	.
.	.	.	.	.	.	.	.	.	.	.	.	8r	.	.	.
.	.	.	.	8A#	dass	du	p	.	.	.	.	8f#	dass	du	p
4BB	der	mir,	.	8B	auch	fehlst	.	(8dL	der	mir,	.	8g	auch	fehlst	.
.	.	.	.	8d	der	mir,	.	8eJ)	.	.	.	8g#X	der	mir,	.
=19	=19	=19	=19	=19	=19	=19	=19	=19	=19	=19	=19	=19	=19	=19	=19
8AA	Früh-	fehlst	.	8d	Früh-	fehlst	.	8f#	Früh-	fehlst	.	8a	Früh-	fehlst	.
8AA	-ling	mir	.	8AnX	-ling	mir	.	8d	-ling	mir	.	8f#	-ling	mir	.
4AA	sein	ü-	.	4A	sein	ü-	.	4d	sein	über-	.	4.f#	sein	ü-	.
4AA	ge-	-ber-	.	4G	ge-	-ber-	.	4c#	ge-	-ber-	.	.	.	.	.
.	.	.	.	.	.	.	.	.	.	.	.	8e	ge-	-ber-	.
=20	=20	=20	=20	=20	=20	=20	=20	=20	=20	=20	=20	=20	=20	=20	=20
2D	-dacht.	-all.	.	2A	-dacht.	-all.	.	2d	-dacht.	-all.	.	2d	-dacht.	-all.	.
=||21	=||21	=||21	=||21	=||21	=||21	=||21	=||21	=||21	=||21	=||21	=||21	=||21	=||21	=||21	=||21
*b:	*	*	*	*b:	*	*	*	*b:	*	*	*	*b:	*	*	*
8r	.	.	.	8d	3.O	.	p	8f#	3.O	.	p	8f#L	3.O	.	p
4r	.	.	.	8d	lie-	.	.	8f#	lie-	.	.	8bJ	lie-	.	.
.	.	.	.	8d	-bes	.	.	8f#	-bes	.	.	8b	-bes	.	.
=22	=22	=22	=22	=22	=22	=22	=22	=22	=22	=22	=22	=22	=22	=22	=22
4r	.	.	.	4.c#	Herz	.	.	4.e	Herz	.	.	(4b	Herz	.	.
8r	.	.	.	.	.	.	.	.	.	.	.	8a#X)	.	.	.
8c#	und	.	p <	8e	und	.	<	8f#	und	.	<	8a#	und	.	<
8B	soll	.	.	8e	soll	.	.	8f#	soll	.	.	8b	soll	.	.
8A#X	ich	.	.	8e	ich	.	.	8f#	ich	.	.	8cc#	ich	.	.
=23	=23	=23	=23	=23	=23	=23	=23	=23	=23	=23	=23	=23	=23	=23	=23
(4B	dich	.	.	(4d	dich	.	.	2f#	dich	.	.	(4dd	dich	.	.
4F#)	.	.	<	4A#X)	.	.	.	.	.	.	.	4cc#)	.	.	.
4D	nun	.	[[	4B	nun	.	<	4f#	nun	.	<	(8bL	nun	.	<
.	.	.	.	.	.	.	[[	.	.	.	[[	8ff#J)	.	.	[[
=24	=24	=24	=24	=24	=24	=24	=24	=24	=24	=24	=24	=24	=24	=24	=24
4.E	nie-	.	>	(4B	nie-	.	>	4.g	nie-	.	>	(4ff#	nie-	.	>
.	.	.	.	8g)	.	.	.	.	.	.	.	8ee)	.	.	.
8E	-mals	.	.	8f#	-mals	.	.	8g	-mals	.	.	8dd	-mals	.	.
8E	wie-	.	.	8e	wie-	.	.	8g	wie-	.	.	8cc#	wie-	.	.
8E	-der	.	]]	8d	-der	.	]]	8g	-der	.	]]	8b	-der	.	]]
=25	=25	=25	=25	=25	=25	=25	=25	=25	=25	=25	=25	=25	=25	=25	=25
4F#	se-	.	.	4d	se-	.	.	4f#	se-	.	.	4b	se-	.	.
8F#	-hen?	.	.	8c#	-hen?	.	.	8f#	-hen?	.	.	8a#X	-hen?	.	.
8E	So	.	p	8A#X	So	.	p	8f#	So	.	p	8f#	So	.	p
8D	muss	.	.	8B	muss	.	.	8f#	muss	.	.	8b	muss	.	.
8D	der	.	.	8B	der	.	.	8f#	der	.	.	8b	der	.	.
=26	=26	=26	=26	=26	=26	=26	=26	=26	=26	=26	=26	=26	=26	=26	=26
*f#:	*	*	*	*f#:	*	*	*	*f#:	*	*	*	*f#:	*	*	*
4C#	Früh-	.	.	4c#	Früh-	.	.	4f#	Früh-	.	.	4b	Früh-	.	.
4C#	-ling	.	.	4c#	-ling	.	.	4f#	-ling	.	.	4anX	-ling	.	.
8BB	auch	.	.	8d	auch	.	.	8e#X	auch	.	.	8g#X	auch	.	.
8BB	für	.	.	8d	für	.	.	8e#	für	.	.	8g#	für	.	.
=27	=27	=27	=27	=27	=27	=27	=27	=27	=27	=27	=27	=27	=27	=27	=27
2AA	mich	.	<	(4c#	mich	.	<	2f#	mich	.	<	2cc#	mich	.	<
.	.	.	.	8f#L	.	.	.	.	.	.	.	.	.	.	.
.	.	.	.	8eJ)	.	.	.	.	.	.	.	.	.	.	.
4BB	ohn’	.	[ > ]]	(8dL	ohn’	.	[ >	(8f#L	ohn’	.	[ >	(8bL	ohn’	.	[ >
.	.	.	.	8BJ)	.	.	]]	8dJ)	.	.	]]	8g#XJ)	.	.	]]
=28	=28	=28	=28	=28	=28	=28	=28	=28	=28	=28	=28	=28	=28	=28	=28
4.C#	Blüth’	.	p	4.A	Blüth’	.	p	4.c#	Blüth’	.	p	4.f#	Blüth’	.	p
8C#	und	.	.	8c#	und	.	.	8c#	und	.	.	8a	und	.	.
8C#	Sang	.	.	8B	Sang	.	.	8c#	Sang	.	.	8g#X	Sang	.	.
8C#	ver-	.	.	8B	ver-	.	.	8c#	ver-	.	.	8e#X	ver-	.	.
=29	=29	=29	=29	=29	=29	=29	=29	=29	=29	=29	=29	=29	=29	=29	=29
4C#	-ge-	.	.	4B	-ge-	.	.	4c#	-ge-	.	.	4e#X	-ge-	.	.
4F#	-hen.	.	.	4A	-hen.	.	.	4c#	-hen.	.	.	4f#	-hen.	.	.
4F#	Was	.	.	4A	Was	.	.	4c#	Was	.	.	8r	.	.	.
.	.	.	.	.	.	.	.	.	.	.	.	8a	Was	.	.
=30	=30	=30	=30	=30	=30	=30	=30	=30	=30	=30	=30	=30	=30	=30	=30
8F#	soll	.	.	8A	soll	.	.	8c#	soll	.	.	8a	soll	.	.
8F#	der	.	.	8A	der	.	.	8c#	der	.	.	8a	der	.	.
8F#	Früh-	.	.	8A	Früh-	.	.	8c#	Früh-	.	.	8g#X	Früh-	.	.
8F#	-ling	.	.	8A	-ling	.	.	8c#	-ling	.	.	8a	-ling	.	.
*A:	*	*	*	*A:	*	*	*	*A:	*	*	*	*A:	*	*	*
8F#	doch	.	.	8A	doch	.	.	8d	doch	.	.	8dd	doch	.	.
8F#	für	.	.	8A	für	.	.	8d	für	.	.	8cc#	für	.	.
=31	=31	=31	=31	=31	=31	=31	=31	=31	=31	=31	=31	=31	=31	=31	=31
(4F#	mich,	.	.	(4A	mich,	.	.	2d	mich,	.	.	2b	mich,	.	.
4Fn)	.	.	<	4G#X)	.	.	<	.	.	.	<	.	.	.	<
4F	was	.	.	4G#	was	.	.	4d	was	.	.	4b	was	.	.
=32	=32	=32	=32	=32	=32	=32	=32	=32	=32	=32	=32	=32	=32	=32	=32
8E	ist	.	.	8G#X	ist	.	.	8d	ist	.	.	8a#X	ist	.	.
8E	ein	.	.	8G#	ein	.	.	8d	ein	.	.	8b	ein	.	.
8E	Früh-	.	.	8d	Früh-	.	.	8g#X	Früh-	.	.	8ee	Früh-	.	.
8E	-ling	.	.	8d	-ling	.	.	8g#	-ling	.	.	8ee	-ling	.	.
8E	oh-	.	.	8c#	oh-	.	.	8gn	oh-	.	.	8ee	oh-	.	.
8E	-ne	.	.	8d	-ne	.	.	8g	-ne	.	.	8dd	-ne	.	.
=33	=33	=33	=33	=33	=33	=33	=33	=33	=33	=33	=33	=33	=33	=33	=33
[2.A	dich?	.	f	2e	dich?	.	.	2g	dich?	.	.	2cc#	dich?	.	.
.	.	.	.	4c#	Was	.	f	4e	Was	.	f	4a	Was	.	f
=34	=34	=34	=34	=34	=34	=34	=34	=34	=34	=34	=34	=34	=34	=34	=34
4A]	.	.	.	8c#	soll	.	.	8e	soll	.	.	8gg	soll	.	.
.	.	.	.	8d	der	.	.	8f#	der	.	.	8ff#	der	.	.
4r	.	.	.	8e	Früh-	.	.	8g	Früh-	.	.	8ee	Früh-	.	.
.	.	.	.	8f#	-ling	.	.	8a	-ling	.	.	8dd	-ling	.	.
*b:	*	*	*	*b:	*	*	*	*b:	*	*	*	*b:	*	*	*
4G	Was	.	>	8e	doch	.	>	8e	doch	.	>	8cc#	doch	.	>
.	.	.	.	8c#	für	.	.	8e	für	.	.	8b	für	.	.
=35	=35	=35	=35	=35	=35	=35	=35	=35	=35	=35	=35	=35	=35	=35	=35
2F#	ist	.	.	4.c#	mich,	.	.	4.e	mich,	.	.	4.a#X	mich,	.	.
.	.	.	.	8A#X	was	.	p	8e	was	.	p	8f#	was	.	p
*D:	*	*	*	*D:	*	*	*	*D:	*	*	*	*D:	*	*	*
4B	ein	.	p	8B	ist	.	.	8d	ist	.	.	8g	ist	.	.
.	.	.	.	8d	ein	.	.	8e	ein	.	.	8g#X	ein	.	.
=36	=36	=36	=36	=36	=36	=36	=36	=36	=36	=36	=36	=36	=36	=36	=36
8A	Früh-	.	.	8d	Früh-	.	.	8f#	Früh-	.	.	8anX	Früh-	.	.
8A	-ling	.	.	8d	-ling	.	.	8d	-ling	.	.	8f#	-ling	.	.
4A	oh-	.	.	4.c#	oh-	.	.	4.g	oh-	.	.	4.b	oh-	.	.
4AA	-ne	.	.	.	.	.	.	.	.	.	.	.	.	.	.
.	.	.	.	8c#	-ne	.	.	8e	-ne	.	.	8g	-ne	.	.
=37	=37	=37	=37	=37	=37	=37	=37	=37	=37	=37	=37	=37	=37	=37	=37
2D	dich?	.	.	2d	dich?	.	.	2d	dich?	.	.	2f#	dich?	.	.
4r	.	.	.	4A	Was	.	.	4r	.	.	.	4r	.	.	.
=38	=38	=38	=38	=38	=38	=38	=38	=38	=38	=38	=38	=38	=38	=38	=38
4r	.	.	.	8g	soll	.	sf	4r	.	.	.	2.r	.	.	.
.	.	.	.	8f#	der	.	.	.	.	.	.	.	.	.	.
4r	.	.	.	8e	Früh-	.	.	4r	.	.	.	.	.	.	.
.	.	.	.	8d	-ling	.	.	.	.	.	.	.	.	.	.
*b:	*	*	*	*b:	*	*	*	*b:	*	*	*	*b:	*	*	*
4G	Es	.	p	8c#	doch	.	.	4e	Es	.	p	.	.	.	.
.	.	.	.	8B	für	.	.	.	.	.	.	.	.	.	.
=39	=39	=39	=39	=39	=39	=39	=39	=39	=39	=39	=39	=39	=39	=39	=39
2F#	ist	.	.	4.A#X	mich?	.	.	2e	ist	.	.	4r	.	.	.
.	.	.	.	.	.	.	.	.	.	.	.	8r	.	.	.
.	.	.	.	8A#	Es	.	p	.	.	.	.	8f#	Es	.	p
*D:	*	*	*	*D:	*	*	*	*D:	*	*	*	*D:	*	*	*
4BB	kein	.	.	8B	ist	.	.	(8dL	kein	.	.	8g	ist	.	.
.	.	.	.	8d	kein	.	.	8eJ)	.	.	.	8g#X	kein	.	.
=40	=40	=40	=40	=40	=40	=40	=40	=40	=40	=40	=40	=40	=40	=40	=40
8AA	Früh-	.	.	8d	Früh-	.	.	8f#	Früh-	.	.	8a	Früh-	.	.
8AA	-ling	.	.	8AnX	-ling	.	.	8d	-ling	.	.	8f#	-ling	.	.
4AA	oh-	.	.	4A	oh-	.	.	4d	oh-	.	.	4.f#	oh-	.	.
4AA	-ne	.	.	4G	-ne	.	.	4c#	-ne	.	.	.	.	.	.
.	.	.	.	.	.	.	.	.	.	.	.	8e	-ne	.	.
=41	=41	=41	=41	=41	=41	=41	=41	=41	=41	=41	=41	=41	=41	=41	=41
2D;	dich!	.	.	2F#;	dich!	.	.	2d;	dich!	.	.	2d;	dich!	.	.
==	==	==	==	==	==	==	==	==	==	==	==	==	==	==	==
==	==	==	==	==	==	==	==	==	==	==	==	==	==	==	==
*-	*-	*-	*-	*-	*-	*-	*-	*-	*-	*-	*-	*-	*-	*-	*-
!!!system-decoration: ([s1,s2,s3,s4])
!!!RDF**kern: i = editorial accidental
!!!AGN: Choral
!!!YOR: https://mdz-nbn-resolving.de/details:bsb00026636
!!!YOO: München, Bayerische Staatsbibliothek
!!!URL-scan: https://www.digitale-sammlungen.de/de/view/bsb00026636?page=1
!!!EED: Wolfgang Drescher
!!!END: 2024/11/14
!!!ENC: Wolfgang Drescher
!!!EEV: 2024/11/14
!!!title: @{OPS} @{ONM}. @{OTL}